X:226
T:Song for the Mira
M:3/4
L:1/8
C:Allister MacGillivray
K:D
"D"A2 D3 D|F2 E2 D2|"G"B2 G3 G|"D"A6|"A"A2 E3 E|"D"F2 D2 D2|"G"G2 F2 G2|"A"E2-E3 A|
"D"A2 D2 D2|F2 E2 D2|"G"BG-G2 G2|"D"A4 A2|d2 A2 F2|"A"G2 F2-FE|"D"D6-|"Fine"D6:|
"G"B2 B3 B|B2 A2 G2|"D"A2 A3 A|A2 G2 F2|"A"G2 G2 G2|G2 F2 E2|"D"F4 G2|A6|
"G"B2 B2 B2|B3 A G2|"D"AA-A3 A|A2-AG F2|"E"E4 EE|EF-F2 ^G2|"A"A6-|A6||
